X: 12951
T: Fiddler's Hickey, The
R: polka
M: 2/4
K: Amajor
|:A>B ca|ce c/B/A|E/F/G AE|GB Bc|A>B ca|
ce c/B/A|1 e/f/e/c/ Bd|cA Aa:|2 e/f/d/c/ Bd|cA Ae||
|:a>f ea|fe ce|a>f eA|cB Be|a>f ea|
fe cf|1 e/f/e/c/ Bd|cA Ae:|2 e/f/e/c/ Bd|cA Aa||

